!!! OTL: Berkowitz333
!!! Chapter: 1
!!! Section: III
!!! Page: 81
!!! Mode: 
!!! Encoder: DJB
**kern
*staff1
*I"Piano
=1-
*clefF4
*k[b-e-a-d-]
*A-:
*M4/4
8E-\L
24F\L
24E-\
24Dn\JJ
8E-\L
8A-\J
8.c\L
16B-\Jk
[4A-\
=2
8A-\L]
16G\L
16F\JJ
16E-\LL
16A-\
16E-\
16D-\JJ
16C/LL
16E-/
16C/
16BB-/JJ
4AA-/
=3
16r
16A-\LL
16F\
16E-\JJ
16D-\LL
16F\
16E-\
16C\JJ
16BB-/LL
16D-/
16BB-/
16AA-/JJ
8GG/L
16F/L
16E-/JJ
=4
!!linebreak:original
8E-\L
8A-\
8BB-\
8F\J
16BB-/LL
16C/
16D-/
16Dn/JJ
8E-\
8r
=5
8E-\L
24F\L
24E-\
24Dn\JJ
8E-\L
8A-\J
24B-\LL
24A-\
24G\
24B-\
24A-\
24F\JJ
8E-\
16r
16En\
=6
8F\L
8A-\
8D-\
8F\J
8BB-\L
8B-\J
16A-\LL
16G\
16F\
16G\JJ
=7
!!linebreak:original
8A-\
16r
16En\
16G\LL
16F\
16D-\
16BB-\JJ
8F\L
8E\J
16r
16C/LL
16D-/
16GG/JJ
=8
2GG/
4AA-/
4r
==
*-
